X: 145
T:Fair Jenny's Jig
% Nottingham Music Database
S:Trad, arr Phil Rowe
M:6/8
K:D
e|:"D"f3 fgf|"A7"ecA ecA|"G"Bcd "A7"ecA|"G"Bcd "A7"efg|
"D"f3 fgf|"A7"ecA ecA|"G"Bcd "A7"ecA|"A7"ABc "D"d3::
"G"B3 B=cB|GBB B=cB|"D"ADD dDD|cDD =cDD|
"G"B3 B=cB|GBB B=cB|"A"AEA ABc|"D"dAF D3:|<end>
<start>
